X:058
%%topmargin 3cm
T:Miss Mountain's
B:The Nelson Music Collection
N:Newton F. Tolman & K. Dep. Gilbert
Z:Transcribed by Ralph Palmer
R:Hornpipe
L:1/16
M:2/4
K:F
cB | Acfa gbeg | fcdc BAGF | EGce cBAG | FEGE C>B, |
A,CFA cfaf | edbg fedc | fcdb gece | f2f2 f2 ::
ga | gece geba | gfed ^ceAG | (FAdf) (Adfa) | gfef defd |
cAGF EGDC | A,CFA cfaf | Bdgb EGce | f2f2 f2 :|]
